X: 1
T: Blue Fish
R: jig
M: 6/8
L: 1/8
K: Dmaj
|: CDE A2c | d2c BAG | FED G2F | EDC D3 :|
|: [dA]3  dBA | [BG]3  BAG | FED G2F | EDC D3 :|